X:1
T:The "Jamestown" Homeward Bound
M:4/4
L:1/4
K:G
 z2 z D| G G D3/2 D/2| B3/2 c/2 d e/2d/2| c d G D| =F3 D| G G D3/2 D/2|\
 B3/2 c/2 d d/2B/2| c/2 B3/2 G F| G3B/2-c/2| d d c d| B G cB/2-A/2|\
 G G F E| D3B/2-A/2| G G D B,| C C D G/2A/2| B3/2 G/2 BB/2-A/2| G3 B/2c/2|\
 d d c d/2d/2| B G cB/2-A/2| G G F E| D3 B/2A/2| G G D B,| C C DG/2-A/2|\
 B3/2 G/2 BB/2-A/2| G3B/2-c/2| d d c d/2d/2| B G c B/2A/2| G G F E|\
 D3B/2-A/2| G G D B,/2B,/2| C C D G/2A/2| B3/2 G/2 BB/2-A/2| G3 z|\
